X: 35
T: Malheureulx cueur que vieulx tu faire
N: Derived from Duf3078-Malheureulx_cueur_que_vieulx_tu_faire.krn
C: Guillaume Du Fay
%%abc-version 2.0
%%abcx-abcm2ps-target-version 5.9.1 (29 Sep 2008)
%%abc-creator hum2abc beta
%%abcx-conversion-date 2019/02/16 20:31:47
%%abc-edited-by Jesse Rodin
%%abc-edited-by Jesse Rodin 3/28/2016
%%abcx-initial-encoding-date 2016/03/28/
%%humdrum-veritas 2924653638
%%humdrum-veritas-data 2449129923
%%linebreak <none>
%%barnumbers 0
L: 1/4
M: 3/1
Q: 1/2=120
V: 1 clef=treble
V: 2 clef=treble-8
V: 3 clef=treble-8
K: C
[V:1] C4E2F2G4 | 
[V:2] c8c2B2 | 
[V:3] C12 | 
[V:1] c4B6G2 | 
[V:2] A4G8 | 
[V:3] z4E8 | 
[V:1] A4G4E4 | 
[V:2] F2E2C8 | 
[V:3] A3Bc2G4c2 | 
[V:1] D4G2E2FEDC | 
[V:2] D4C4C4 | 
[V:3] B2A2c8 | 
[V:1] B,8z4 | 
[V:2] G8E2F2 | 
[V:3] d8e4 | 
[V:1] B4c6A2 | 
[V:2] G4A8 | 
[V:3] d4c2d2e4 | 
[V:1] B4A6G2 | 
[V:2] G4c8 | 
[V:3] E4F8 | 
[V:1] G8F2E2 | 
[V:2] B4A4A4 | 
[V:3] G4D8 | 
[V:1] G3FE2D2G2A2 | 
[V:2] G8E2D2 | 
[V:3] d4B4c2d2- | 
[V:1] B2c3BAG^F3E | 
[V:2] G2A2B2c2A4 | 
[V:3] d2c2d2e2c3B | 
[V:1] G12 | 
[V:2] G8z4 | 
[V:3] d4B4G4 | 
[V:1] z2G4E2F4 | 
[V:2] c4B2c2d4 | 
[V:3] C2EFG2C2B,4 | 
[V:1] E8D4 | 
[V:2] c2A2G2c4B2 | 
[V:3] C8G4 | 
[V:1] C4B,4E3D | 
[V:2] c4G4z2G2 | 
[V:3] C4E4C4 | 
[V:1] F3EDCC4B,2 | 
[V:2] A2F2G2E2D4 | 
[V:3] c2A2B2G4F2 | 
[V:1] C4z4z4 | 
[V:2] C12 | 
[V:3] G4A2G2c3B | 
[V:1] c4B2A3GF2 | 
[V:2] z12 | 
[V:3] AGA2E2F2D4 | 
[V:1] E4z4A4 | 
[V:2] c4B2A3GF2 | 
[V:3] C2EFGF/G/A2c2d2 | 
[V:1] G3AB4c4 | 
[V:2] E8A4 | 
[V:3] e8e4 | 
[V:1] B6G2AGFE | 
[V:2] G3AB4c4 | 
[V:3] E4G4C4 | 
[V:1] D2C2c2B2A3G | 
[V:2] B2e4d2c4 | 
[V:3] G2ABc2G2A4 | 
[V:1] B4G4z4 | 
[V:2] B4E8 | 
[V:3] E4e3dB4 | 
[V:1] A4G2c4B2 | 
[V:2] z4e4d4 | 
[V:3] A4c4G4 | 
[V:1] c2A4G2A2E2 | 
[V:2] c2d2B4A3G | 
[V:3] A2D2E4z2c2- | 
[V:1] c3BA2G2F2E2 | 
[V:2] A2E2c2B2A2GE | 
[V:3] cde6c2BG | 
[V:1] A2GEF2E3DDC | 
[V:2] F2E2A2G2F4 | 
[V:3] A2B2c2B2AA2G | 
[V:1] E12 ||  
[V:2] E12 ||  
[V:3] B12 ||  
[V:1]  [K:C] [K:clef=treble][M:2/1]G6A2 | 
[V:2]  [K:C] [K:clef=treble-8][M:2/1]e8 | 
[V:3]  [K:C] [K:clef=treble-8][M:2/1]E8- | 
[V:1] B4c4 | 
[V:2] e8 | 
[V:3] E8 | 
[V:1] d4c2A2- | 
[V:2] f8 | 
[V:3] D8 | 
[V:1] A2G2G4 | 
[V:2] e8 | 
[V:3] C8 | 
[V:1] F2A3GE2 | 
[V:2] d4c4 | 
[V:3] D4A4 | 
[V:1] F2G2F2ED | 
[V:2] d8 | 
[V:3] D4_B4 | 
[V:1] C8 | 
[V:2] e4A3B | 
[V:3] A4F4- | 
[V:1] z8 | 
[V:2] A2GFE4 | 
[V:3] F2A2G2F2 | 
[V:1] D4F4 | 
[V:2] D8 | 
[V:3] A8 | 
[V:1] E4D4- | 
[V:2] z4d4 | 
[V:3] A4D4- | 
[V:1] D4G4 | 
[V:2] f4e4 | 
[V:3] D4C4 | 
[V:1] A2B2A2d2- | 
[V:2] d8- | 
[V:3] z4D4 | 
[V:1] d2c2A4- | 
[V:2] d4c4 | 
[V:3] G4A4 | 
[V:1] A4^G2^F2 | 
[V:2] B8 | 
[V:3] E8 | 
[V:1] A8 | 
[V:2] A8- | 
[V:3] e8 | 
[V:1] z4E4- | 
[V:2] A8 | 
[V:3] c8 | 
[V:1] E2F2G4 | 
[V:2] E8 | 
[V:3] B8 | 
[V:1] A4G4 | 
[V:2] F4E4 | 
[V:3] A4B2c2 | 
[V:1] F6E2 | 
[V:2] D8 | 
[V:3] d2A2B4 | 
[V:1] E4C4 | 
[V:2] C4E4 | 
[V:3] c4C2G2 | 
[V:1] D2E4F2 | 
[V:2] F2G4A2 | 
[V:3] A2B4c2 | 
[V:1] E2DCB,4 | 
[V:2] G2FED4 | 
[V:3] B2AGF3E | 
[V:1] C2E4F2 | 
[V:2] C4G2A2 | 
[V:3] G3AB2c2 | 
[V:1] G4A2G2 | 
[V:2] G2c4B2 | 
[V:3] C2E2F2G2 | 
[V:1] E8 | 
[V:2] c6d2 | 
[V:3] C8- | 
[V:1] z4A4 | 
[V:2] e4A4 | 
[V:3] C4F4 | 
[V:1] G2F2A4- | 
[V:2] B4c4 | 
[V:3] E4z4 | 
[V:1] A2G2F2E2 | 
[V:2] A6G2 | 
[V:3] c6B2 | 
[V:1] E4A4 | 
[V:2] A4F4 | 
[V:3] c4A2d2 | 
[V:1] G4F4- | 
[V:2] E4D4 | 
[V:3] e2c2d4 | 
[V:1] F2E2E4- | 
[V:2] G8 | 
[V:3] B3AB2c2 | 
[V:1] E2D2D2C2 | 
[V:2] F8 | 
[V:3] A6G2 | 
[V:1] E8 ||  
[V:2] E8 ||  
[V:3] B8 ||  



